X: 195
T: Bonny Laboring Boy
N:"Tenderly" "collected by F. O'Neill"
B:O'Neill's 195
Z:Transcribed by henrik.norbeck@mailbox.swipnet.se
M:6/8
L:1/8
K:D
D|G2 F G2 A|d2 c AGF|G2 F D2 D|D3- D2 A|
d2 e =f2 e|d2 B cdc|B2 B2 A2 G|A3 ABc|
d2 e =f2 e|d2 B cdc|B2 B A2 G|A3 AGF|
G2 F G2 A|d2 c AGF|G2 F D2 D|D3- D2||


